svg/color/pyplon.svg

<svg width="40" height="40" viewBox="0 0 40 40" fill="none" xmlns="http://www.w3.org/2000/svg">
<g clip-path="url(#clip0_819_3593)">
<path d="M20 0C31.0457 0 40 8.9543 40 20C40 31.0457 31.0457 40 20 40C8.95431 40 7.90517e-06 31.0457 0 20C6.58765e-07 8.95431 8.95431 1.97595e-06 20 0Z" fill="#CCD6E7"/>
<path d="M26 6C30.4183 6 34 9.58172 34 14V26C34 30.4183 30.4183 34 26 34H14C9.58172 34 6 30.4183 6 26V14C6 9.58172 9.58172 6 14 6H26Z" fill="#003087"/>
<g clip-path="url(#clip1_819_3593)">
<path d="M29.9986 16.6443V21.6565H28.8581V16.6443H29.9986ZM28.4383 18.3359V21.6657H27.4245V21.3786C27.2963 21.5038 27.1497 21.5985 26.9879 21.6657C26.8245 21.7359 26.6474 21.7725 26.4581 21.7725C26.2199 21.7725 25.9986 21.7283 25.7955 21.6397C25.5925 21.5466 25.4154 21.4199 25.2657 21.2611C25.1146 21.1008 24.9955 20.9145 24.907 20.7023C24.823 20.4855 24.7818 20.2519 24.7818 20.0031C24.7818 19.7542 24.823 19.5237 24.907 19.3115C24.9955 19.0947 25.1146 18.9054 25.2657 18.745C25.415 18.586 25.5953 18.4592 25.7955 18.3725C25.9986 18.2794 26.2199 18.2321 26.4581 18.2321C26.6474 18.2321 26.8245 18.2672 26.9879 18.3389C27.1512 18.4061 27.2978 18.5008 27.4245 18.626V18.3389H28.4383V18.3359ZM26.6413 20.7588C26.8489 20.7588 27.0184 20.6886 27.1512 20.5451C27.2886 20.4031 27.3573 20.2214 27.3573 20C27.3573 19.7786 27.2886 19.5954 27.1512 19.455C27.0184 19.313 26.8474 19.2412 26.6413 19.2412C26.4352 19.2412 26.2612 19.3115 26.1238 19.455C25.9909 19.597 25.9253 19.7786 25.9253 20C25.9253 20.2214 25.9925 20.4046 26.1238 20.5451C26.2612 20.687 26.4337 20.7588 26.6413 20.7588ZM23.1543 16.6443C23.4551 16.6443 23.7115 16.687 23.9238 16.771C24.136 16.855 24.3146 16.9725 24.4612 17.1237C24.6108 17.2794 24.7283 17.4565 24.8123 17.6565C24.8963 17.8565 24.9375 18.0718 24.9375 18.3023C24.9375 18.5328 24.8963 18.7481 24.8123 18.9481C24.7299 19.1463 24.6107 19.327 24.4612 19.4809C24.3161 19.6321 24.136 19.7496 23.9238 19.8336C23.7115 19.9176 23.4551 19.9603 23.1543 19.9603H22.6047V21.6641H21.4444V16.6443H23.1543ZM22.9879 18.9283C23.1436 18.9283 23.2612 18.913 23.3467 18.8809C23.4352 18.8458 23.5085 18.8 23.565 18.7481C23.6841 18.6367 23.7436 18.4886 23.7436 18.3023C23.7436 18.116 23.6841 17.968 23.565 17.8565C23.507 17.8031 23.4352 17.7603 23.3467 17.7298C23.2627 17.6947 23.1436 17.6763 22.9879 17.6763H22.6031V18.9283H22.9879ZM17.1696 18.3359H18.4291L19.2841 19.9328H19.2978L20.0596 18.3359H21.226L18.7268 23.3557H17.5665L18.707 21.0596L17.1696 18.3359ZM16.9451 18.3359V21.6657H15.9314V21.3786C15.8031 21.5038 15.6566 21.5985 15.4947 21.6657C15.3314 21.7359 15.1543 21.7725 14.965 21.7725C14.7268 21.7725 14.5054 21.7283 14.3024 21.6397C14.0993 21.5466 13.9222 21.4199 13.7726 21.2611C13.623 21.1008 13.5024 20.9145 13.4138 20.7023C13.3299 20.4855 13.2886 20.2519 13.2886 20.0031C13.2886 19.7542 13.3299 19.5237 13.4138 19.3115C13.5024 19.0947 13.6215 18.9054 13.7726 18.745C13.9216 18.5856 14.102 18.4588 14.3024 18.3725C14.5054 18.2794 14.7268 18.2321 14.965 18.2321C15.1543 18.2321 15.3314 18.2672 15.4947 18.3389C15.6581 18.4061 15.8047 18.5008 15.9314 18.626V18.3389H16.9451V18.3359ZM15.1482 20.7588C15.3558 20.7588 15.5253 20.6886 15.6596 20.5451C15.797 20.4031 15.8657 20.2214 15.8657 20C15.8657 19.7786 15.797 19.5954 15.6596 19.455C15.5268 19.313 15.3558 19.2412 15.1482 19.2412C14.9406 19.2412 14.768 19.3115 14.6306 19.455C14.4978 19.597 14.4322 19.7786 14.4322 20C14.4322 20.2214 14.4993 20.4046 14.6306 20.5451C14.768 20.687 14.9406 20.7588 15.1482 20.7588ZM11.7085 16.6443C12.0093 16.6443 12.2657 16.687 12.478 16.771C12.6902 16.855 12.8688 16.9725 13.0154 17.1237C13.165 17.2794 13.2825 17.4565 13.3665 17.6565C13.4505 17.8565 13.4917 18.0718 13.4917 18.3023C13.4917 18.5328 13.4505 18.7481 13.3665 18.9481C13.2841 19.1463 13.1649 19.327 13.0154 19.4809C12.8703 19.6321 12.6902 19.7496 12.478 19.8336C12.2657 19.9176 12.0093 19.9603 11.7085 19.9603H11.1589V21.6641H9.99857V16.6443H11.7085ZM11.5436 18.9283C11.6993 18.9283 11.8169 18.913 11.9024 18.8809C11.9909 18.8458 12.0642 18.8 12.1207 18.7481C12.2398 18.6367 12.2993 18.4886 12.2993 18.3023C12.2993 18.116 12.2398 17.968 12.1207 17.8565C12.0627 17.8031 11.9909 17.7603 11.9024 17.7298C11.8184 17.6947 11.6993 17.6763 11.5436 17.6763H11.1589V18.9283H11.5436Z" fill="white"/>
</g>
</g>
<defs>
<clipPath id="clip0_819_3593">
<rect width="40" height="40" fill="white"/>
</clipPath>
<clipPath id="clip1_819_3593">
<rect width="20" height="20" fill="white" transform="translate(10 10)"/>
</clipPath>
</defs>
</svg>

<svg xmlns="http://www.w3.org/2000/svg" width="40" height="40" fill="none" viewBox="0 0 40 40"><g clip-path="url(#pyplon_svg-a)"><path fill="#CCD6E7" d="M20 0c11.046 0 20 8.954 20 20s-8.954 20-20 20S0 31.046 0 20 8.954 0 20 0"/><path fill="#003087" d="M26 6a8 8 0 0 1 8 8v12a8 8 0 0 1-8 8H14a8 8 0 0 1-8-8V14a8 8 0 0 1 8-8z"/><g clip-path="url(#pyplon_svg-b)"><path fill="#fff" d="M29.999 16.644v5.013h-1.14v-5.013zm-1.56 1.692v3.33h-1.015v-.287q-.192.187-.436.287a1.3 1.3 0 0 1-.53.107 1.6 1.6 0 0 1-.662-.133 1.7 1.7 0 0 1-.53-.379 1.8 1.8 0 0 1-.359-.559 1.9 1.9 0 0 1-.125-.699q0-.374.125-.692a1.8 1.8 0 0 1 .359-.566c.149-.159.33-.286.53-.373q.305-.14.662-.14.285 0 .53.107.246.1.436.287v-.287h1.014zm-1.798 2.423q.311.001.51-.214a.75.75 0 0 0 .206-.545.75.75 0 0 0-.206-.545.67.67 0 0 0-.51-.214q-.31-.001-.517.214a.77.77 0 0 0-.199.545.77.77 0 0 0 .199.545q.206.213.517.214m-3.487-4.115q.452 0 .77.127.317.125.537.353.225.232.351.533.126.3.125.645.001.346-.125.646a1.7 1.7 0 0 1-.35.533 1.5 1.5 0 0 1-.538.353 2.1 2.1 0 0 1-.77.126h-.55v1.704h-1.16v-5.02zm-.166 2.284q.232 0 .359-.047a.58.58 0 0 0 .397-.579.58.58 0 0 0-.179-.445.6.6 0 0 0-.218-.127 1 1 0 0 0-.36-.054h-.384v1.252zm-5.818-.592h1.26l.854 1.597h.014l.762-1.597h1.166l-2.5 5.02h-1.16l1.141-2.296zm-.225 0v3.33h-1.014v-.287q-.192.187-.436.287a1.3 1.3 0 0 1-.53.107 1.6 1.6 0 0 1-.663-.133 1.7 1.7 0 0 1-.53-.379q-.225-.24-.358-.559a1.9 1.9 0 0 1-.125-.699q-.001-.374.125-.692.131-.325.359-.566c.149-.16.329-.286.53-.373q.304-.14.662-.14.284 0 .53.107.246.1.436.287v-.287h1.014zm-1.797 2.423q.31.001.512-.214a.75.75 0 0 0 .206-.545.75.75 0 0 0-.206-.545.67.67 0 0 0-.512-.214q-.311-.001-.517.214a.77.77 0 0 0-.199.545.77.77 0 0 0 .199.545q.206.213.517.214m-3.44-4.115q.452 0 .77.127.317.125.537.353.226.232.351.533.127.3.126.645 0 .346-.126.646a1.7 1.7 0 0 1-.35.533 1.5 1.5 0 0 1-.538.353 2.1 2.1 0 0 1-.77.126h-.55v1.704h-1.16v-5.02zm-.164 2.284q.231 0 .358-.047a.58.58 0 0 0 .397-.579.58.58 0 0 0-.178-.445.6.6 0 0 0-.219-.127 1 1 0 0 0-.358-.054h-.385v1.252z"/></g></g><defs><clipPath id="pyplon_svg-a"><path fill="#fff" d="M0 0h40v40H0z"/></clipPath><clipPath id="pyplon_svg-b"><path fill="#fff" d="M10 10h20v20H10z"/></clipPath></defs></svg>
